X:1
T:Nocturne Op.8
T:Nocturne.
T:Serge Liapounow,Op.8
C:Serge Liapnow
%%score { ( 1 3 4 ) | ( 2 5 ) }
L:1/8
Q:1/8=68
M:6/8
K:Db
V:1 treble nm="Piano" snm="Pno."
V:3 treble 
V:4 treble 
V:2 bass 
V:5 bass 
V:1
"^Andante spianato." z6 |[Q:1/8=72]!p! (f!<(!e/d/c/B/!<)!!p! =A2 B/c/ | dc/B/ e/f/!p! d3) | %3
 z/ (g/f/e/d/c/ =A/B/dc/B/ | =G/A/!mp!B!>(!A/_G/ F3)!>)! | %5
!p! (a!>(!g/f/e/f/!>)! B-)B/!<(!(ef/)!<)! |!p! (gf/e/d/e/ f3) | z/ (b/a/b/a/g/!<(! f/=d/fe)!<)! | %8
!mp! (dc/B/=A/B/ c3)[Q:1/8=64] |[Q:1/8=72]!mp!{DFA} (fe/d/c/B/ =A2 B/c/ | d"_cresc."c/B/ e/f/ g3) | %11
!mf! z/ (!arpeggio!b/a/g/!arpeggio!f/e/!<(! d/e/fe/d/!<)! |!<(! c/e/dc/d/!<)! B2) (B- | %13
[Q:1/8=70] B/e/dc/d/[Q:1/8=68]"^\n"!mf! B2)[Q:1/8=60] (B-[Q:1/8=64] | %14
[Q:1/8=72] Bce!p![Q:1/8=72] dc>B) |"_dolce" (__B-B/AG/[Q:1/8=68]!<(! F2[Q:1/8=60] E)!<)! | %16
!mp![Q:1/8=72] (=D2 E- E =E2 | %17
[Q:1/8=70] F)[Q:1/8=68]"^poco rit." F>[Q:1/8=64]C[Q:1/8=60]"^smorz." E2-[Q:1/8=52] E/[Q:1/8=20] !fermata!z/[Q:1/8=56] | %18
[K:A][K:bass]!p![Q:1/8=120]"^Piú" (A,/ | %19
"^mosso, agitato."[Q:1/8=88] (3C/C,/)!<(!(G,/(3C/C,/)(F,/(3C/C,/)!<)!!mp!(^E,/!>(! (3C/C,/)(B,/(3F,/!>)!!p!G,/"_cresc."A,/(3^B,/C/)[K:treble](D/ | %20
 (3F/!<(!F,/)(C/(3F/F,/)(B,/(3F/!<)!F,/)!mp!(^A,/!>(! (3F/F,/)(E/!p!(3B,/!>)!!<(!C/D/(3^E/F/)G/!<)! | %21
!mf! (3:2:1(B3/2-(3B/A/G/(3^E/F/G/) (3:2:1(B3/2-(3B/A/G/(3^E/F/G/) | %22
 (3:2:1(A3/2-(3A/G/F/(3^D/E/F/) (3(E/=D/C/(3:2:1B,3/2-(3:2:2B,/^B,) | %23
 (3:2:1C3/2-(3C/(C/^E/(3A/G/c/)!p![Q:1/8=80] (3(e/d/c/[Q:1/8=88](3:2:1B3/2-(3:2:2B/^B) | %24
 (3(d/c/!>(!g/(3^E/A/G/(3c/B,/D/[Q:1/8=80] (3C/G/^E,/[K:bass][Q:1/8=76](3A,/G,/C/!p!(3(C,/)!>)![Q:1/8=70] z/[K:treble] (A/) | %25
[Q:1/8=88] (3c/C/)(G/(3c/C/)(F/(3c/C/)(^E/- (3c/C/)(B/(3F/G/A/(3^B/c/)!f!(d/ | %26
 (3f/F/)(c/!<(!(3f/F/)(B/(3f/F/)(^A/!<)!!>(! (3f/F/)(e/!>)!(3B/c/!<(!d/(3^e/f/)g/!<)! | %27
!f! (3:2:1(b3/2-(3b/a/g/(3^B/c/^d/) (3:2:1(f3/2-(3f/e/^d/(3^B/c/d/) | %28
 (3:2:1(e3/2-(3e/^d/c/(3^A/B/!mf!c/) (3(B/=A/G/(3:2:1F3/2-(3:2:2F/^^F) | %29
 (3:2:1G3/2-!>(!(3G/(G/^B/(3e/!>)!^d/g/)!p![Q:1/8=84] (3(=b/a/g/[Q:1/8=88](3:2:1f3/2-(3:2:2f/^^f) | %30
 (3(a/g/!>(!^d'/(3^B/e/^d/(3g/F/A/[Q:1/8=84] (3G/d/^B,/[Q:1/8=80](3E/^D/G/[Q:1/8=72]!pp!(3(G,/)!>)! z/ (=B/) | %31
[Q:1/8=88] (3e/!mf!!<(!E/)(A/(3e/E/)(G/!<)!(3e/E/)!f!(=G/ (3:2:1e3/2-!>(!(3e/^d/c/(3^B/c/d/)!>)! | %32
!mf! (3(e/E/)(A/(3e/E/)(G/(3e/E/)!f!(^^F/ |!>(! (3:2:1e3/2-!>)!(3e/^d/c/(3B/^A/)(d/ | %34
 (3g/G/)(c/(3g/G/)(^B/(3g/G/)(=B/!>(! (3:2:1g3/2-!>)!(3g/^^f/^e/(3^^d/e/f/) | %35
!f! (3(_a/_A/)!<(!(_d/(3a/A/)(=c/(3a/A/)!<)!(=B/!>(! (3:2:1a3/2-!>)!(3a/=g/=f/(3_e/=d/)(g/ | %36
[Q:1/8=96]!>(! (3=c'/=c/)!>)!(=f/ (3_a/c'/_a'/(3=g'/=f'/e'/ (3_e'/_d'/=c'/(3_b/d'/_a/(3e/f/=g/ | %37
[Q:1/8=108]!mf! (3=c'/!<(!=c/)(=f/(3_e'/_e/)(=a/(3=d'/d/)=g/[Q:1/8=112] (3:2:1x3/2 (3:2:1x3/2 (3:2:2x!<)! (^c'/ | %38
!f!!>(! (3^f'/^f/)(b/!>)!!mf!!8va(! (3d'/f'/d''/(3c''/b'/^a'/ (3=a'/=g'/^f'/(3e'/g'/d'/(3^a/b/c'/ | %39
[Q:1/8=112] (3f'/f/)(b/(3a'/a/)(^d'/(3g'/g/)c'/[Q:1/8=116] (3:2:1x3/2 (3:2:1x3/2 (3:2:2x (=g'/ | %40
[K:Db]!f! (3b'/b/)(d'/(3_g'/b'/g''/(3f''/e''/=d''/ (3_d''/c''/b'/(3=a'/c''/b'/(3=g'/e'/=e'/) | %41
[Q:1/8=232] x[Q:1/8=100] (3(f'/a'/_g'/(3e'/=b/c'/(3=d'/f'/e'/!8va)! (3c'/=g/a/!>(!(3=a/c'/_b/(3_g/=d/e/ | %42
 (3f/a/g/(3e/=B/c/(3=d/f/e/[Q:1/8=90] (3c/!>)!=G/A/[Q:1/8=86](3=A/"_poco rit."!<(!c/_B/[Q:1/8=84](3_G/F/E/)!<)! | %43
[Q:1/8=80] (3:2:1([=B,=D]3/2-(3[B,D]/[CE]/[B,F]/ (3[CG]/)[Q:1/8=78] ([F=A]/[G_B]/(3[F=B]/[Gc]/[=B=d]/[Q:1/8=76](3[ce]/[Bf]/[cg]/(3[f=a]/[g_b]/[f=b]/[Q:1/8=74](3[gc']/[=b=d']/[c'e']/[Q:1/8=72]!8va(!(3[=bf']/[c'g']/[f'=a']/[Q:1/8=70](3[g'b']/[f'=b']/[g'c'']/[Q:1/8=80] !arpeggio![e'g'_b'e''])[Q:1/8=90]!8va)![Q:1/8=80] z[Q:1/8=40] !fermata!z[Q:1/8=60] | %44
"^Tempo Ⅰ."[Q:1/8=72] z6 |({FAdf-)} ([ff'][ee']/[dd']/[cc']/[Bb]/)!p! ([=A=a]2 [Bb]/[cc']/ | %46
 [dfd']/) (D/8=E/8F/8=A/8c/8B/8d/8=e/8!<(!f/8=a/8c'/8b/8[Q:1/8=70]g/8c'/8=d'/8e'/8!<)![Q:1/8=60]!p!!>(!f'/8c'/8_a/8g/8!>)![Q:1/8=72]!p! [f_d']2) z | %47
 z/ (3(g/4b/4g'/4(6:4:6f'/4b/4)(e/4g/4b/4!<(!e'/4(6:4:6d'/4g/4)(=A/4e/4!<)!g/4c'/4 | %48
 (6:4:6=a/4e/4)(G/4d/4b/4g/4!p! .d'/) (3(G/4=A/4B/4(6:4:6c/4d/4e/4=e/4c'/4b/4 | %49
 (6:4:6=g/4!>(!B/4)(A/4d/4a/4B/4!>)! (6:4:6b/4)!<(! (b'/4a'/4f'/4_c'/4b/4)!<)! (6:4:3(a3/4x/[Q:1/8=60]_g/4[Q:1/8=72]!p! [=Af]2)[Q:1/8=70][Q:1/8=68] z | %50
!pp![Q:1/8=66]!8va(!!>(! (3:2:1(a'3/2-!>)![Q:1/8=60] a'/8b'/8_c''/8b'/8a'/8f'/8_c'/8b/8!8va)!a/8f/8_c/8B/8[Q:1/8=40](6:4:6A/8F/8x/8G/8F/8)[Q:1/8=60] x/8 B,/-[Q:1/8=72]"^volante" (B,/8F/8E/8c/8B/8f/8e/8_c'/8b/8f'/8e'/8c''/8[Q:1/8=60]!<(! .b'/4) (e'/f'/4)[Q:1/8=40]!8va(!!<)!!8va)! | %51
[Q:1/8=60]!8va(!{/g} (3:2:1(g'3/2-!p! g'/8a'/8b'/8a'/8g'/8e'/8b/8a/8!8va)!g/8e/8B/8A/8G/8=D/8E/8=E/8) | %52
!>(! (G/F/-!p! (12:8:12F/8!>)!d/8c/8g/8f/8d'/8c'/8!8va(!g'/8f'/8d''/8c''/8g''/8 .f''/) z/ | %53
!p![Q:1/8=72] (6:4:6z/4 ([a'_c'']/4[f'b']/4[_c'a']/4[bf']/4[ac']/4 (6:4:6[bf']/4[ac']/4!8va)![fb]/4[_ca]/4[Bg]/4[Ac]/4 (6:4:6[Bf]/4[Ge]/4[FB]/4[EG]/4[B,F]/4[G,E]/4) (6:4:6([A,=D]/4!<(!B,/4B/4A/4f/4B/4 (6:4:6G/4f/4B/4e/4g/4f'/4 (6:4:6b/4e'/4!8va(!g'/4b'/4f''/4e''/4)!<)! | %54
 (3:2:9!arpeggio![f'b'd'']/!8va)! (B,/8D/8E/8=E/8F/8=A/8c/8B/8(3:2:25d/8!<(!e/8=e/8f/8=a/8c'/8b/8d'/8(5:4:5e'/8=e'/8f'/8!8va(!b'/8c''/8!<)![Q:1/8=68](1:1:12e''/8!>(!d''/8b'/8=e'/8!8va)![Q:1/8=64]_e'/8d'/8b/8=e/8[Q:1/8=60]_e/8d/8!>)!c/8B/8[Q:1/8=72]!mp!!<(! [=Af]2) [G_Ac_a]!<)! | %55
!f!({FAdf-)} ([ff'][ee']/[dd']/[cc']/[Bb]/) ([=A=a]2 [Bb]/[cc']/) | %56
!<(! ([dfd'][cc']/[Bb]/) ([ebe']/[ff']/) [gbg']3!<)! | %57
"_con passione" z/ [bc'g'b']/[aa']/[gg']/[fac'f']/[ee']/ [=dac'=d']/[ee']<[fac'f'][cc']/ | %58
 [ef_c'e'][=dfc'=d']>[gg'] [fbf']/[ee']/[dd']/[ee']/[gg']/[bb']/ | %59
!ff! z/!8va(! [e'f'_c''e'']/[d'd'']/[_c'c'']/[bd'f'b']/[aa']/ [=gd'f'=g']/[aa']<[bd'f'b'][ff']/ | %60
 [ab_f'a'][=gbf'=g']>[_c'_c''] | [be'b']/[aa']/[=g=g']/[aa']/!8va)![=d=d']/[ee']/ | %62
 !arpeggio![fb=d'f']2!mf! (!>!b- ba/g/f/e/ | %63
 =d2)!p! (!>!B- (3:2:31B/4=G/4(3A/4B/4_c/4!<(!(3=d/4e/4=g/4(3:2:23(3a/4b/4_c'/4(3=d'/4e'/4!8va(!=g'/4(3a'/4b'/4_c''/4!<)![Q:1/8=64]!mp!(1:1:14f''/8!>(!e''/8c''/8a'/8!8va)![Q:1/8=60]f'/8e'/8c'/8a/8[Q:1/8=56](18:8:6f/8e/8c/8A/8F/8E/8!>)! | %64
[Q:1/8=72]!p! =D2)!mf! (!>!a- ag/f/e/_d/) |"_dim." (c2- c/d/ e =e2) | %66
 (f!>(!e/d/c/B/!>)! =A2 B/_c/) | (ed/_c/B/A/ =G2 A/B/) | (_cB/A/G/F/ =DE>F) | %69
 (A2({GA)} G/F/) E2 [Aca] | ([ff'][ee']/[dd']/[cc']/[Bb]/) ([=A=a]2 [Bb]/[_c_c']/) | %71
 ([ee']!>(![dd']/[_c_c']/[Bb]/[Aa]/)!>)! ([=G=g]2 [Aa]/[Bb]/) | %72
[Q:1/8=16] (3:2:12!arpeggio![_cf_c']/8[Q:1/8=36]"_leggierissimo"!8va(! (_c''/8b'/8a'/8[Q:1/8=40]c''/8g'/8f'/8a'/8[Q:1/8=44]e'/8=d'/8f'/8_d'/8[Q:1/8=48](3:2:12_c'/8=d'/8b/8a/8!8va)![Q:1/8=52]_c'/8g/8f/8a/8[Q:1/8=56]e/8=d/8f/8_d/8[Q:1/8=60](3:2:12c/8=d/8B/8A/8[Q:1/8=64]c/8G/8F/8A/8[Q:1/8=68]E/8=D/8F/8_D/8[Q:1/8=72] (9:4:27(1:1:3_C/4=A,/4B,/4(1:1:3=D/4E/4!<(!F/4(1:1:3G/4=A/4B/4(1:1:18(9:4:3=d/4e/4f/4(9:4:3g/4=a/4b/4(9:4:3d'/4!<)!f'/4e'/4[Q:1/8=68](9:4:9(1:1:3b/4!>(!f/4_a/4[Q:1/8=64](1:1:3g/4=d/4f/4[Q:1/8=60](1:1:3e/4B/4[Q:1/8=120]G/4)!>)! | %73
[Q:1/8=100] x/ x/8[Q:1/8=72] !arpeggio![FAf]([EAe]>[Q:1/8=100][Dd]) x/ x/8!f!"^brillante"[Q:1/8=36] (6:4:6([CGc]/4[Q:1/8=72]B/4e/4c/4f/4e/4 a/8g/8c'/8b/8e'/8c'/8f'/8e'/8!8va(!a'/8g'/8c''/8b'/8e''/8c''/8f''/8a'/8 | %74
 d''2)!8va)! z!p! z!<(! (D>E!<)! |!mp!!>(! F3)!>)!!mf! z!<(! (d>e!<)! | %76
!>(! f3)!>)! z ([dd']>[ee']) | !arpeggio![fac'f']3!>(! (b2 a)[Q:1/8=64]!>)! | %78
!p!"_delcissimo"!8va(!({fad'f'-)} ([f'f''][e'e'']/[d'd'']/[c'c'']/[bb']/) ([=a=a']2 [bb']/[c'c'']/)!8va)! | %79
[Q:1/8=60]"_dim." ([ff'][ee']/[dd']/[cc']/[Q:1/8=50][Bb]/)[Q:1/8=56] (!arpeggio!=a2[Q:1/8=54][Q:1/8=50] b/c'/)[Q:1/8=32][Q:1/8=20] | %80
!pp![Q:1/8=48] !arpeggio!f6[Q:1/8=46][Q:1/8=44][Q:1/8=38][Q:1/8=54] | %81
[Q:1/8=40]"^m.s" d'6[Q:1/8=54][Q:1/8=50][Q:1/8=40]!ppp![Q:1/8=46][Q:1/8=72] | %82
[Q:1/8=30] !fermata![FAdfad'a']6[Q:1/8=30][Q:1/8=18][Q:1/8=72][Q:1/8=60][Q:1/8=42] |] %83
V:2
!p!!ped! (3(D,,/A,,/A,/(3F,/A/D/(3F,/A,/A,,/)!ped-up!!ped! (3(D,,/A,,/A,/(3F,/A/D/(3F,/A,/A,,/)!ped-up! | %1
"^dolce"!ped! (3(D,,/A,,/A,/(3F,/A/D/(3F,/A,/A,,/)!ped-up!!ped! (3(C,,/F,,/F,/(3E,/F/=A,/(3C,/F,/F,,/)!ped-up! | %2
!ped! (3(B,,,/F,,/F,/(3D,/!>(!B,/F,/) (3(A,,/C/A,/)!ped-up!!ped! (3(D,,/!>)!A,,/A,/(3F,/A/D/(3F,/A,/A,,/)!ped-up! | %3
!ped! (3(C,,/C,/B,/(3G,/E/B,/) (3(F,,/=A,/E,/)!ped-up!!ped! (3(G,,/!<(!E,/C/(3B,/E/D/) (3(=G,,/D/!<)!=E,/)!ped-up! | %4
!<(!!ped! (3(A,,/F,/D/)!<)! (3(=D,,/F,/_C,/(3E,,/G,/B,,/)!ped-up!!ped! (3(F,,,/F,,/=C,/[I:staff -1](3=A,/[I:staff +1]F,/F/(3=A,/F,/C,/)!ped-up! | %5
!ped! (3(=D,,/B,,/F,/(3=D,/F/B,/(3F,/B,/B,,/)!ped-up!!ped! (3(E,,/B,,/G,/(3E,/A/B,/(3E,/G,/B,,/)!ped-up! | %6
!ped! (3(C,,/B,,/G,/(3E,/!>(!B,/G,/) (3(G,,/B,/C,/)!ped-up!!ped! (3(F,,/C,/C/(3F,/!>)!F/C/(3F,/=A,/C,/)!ped-up! | %7
!ped! (3(=D,,/B,,/F,/(3=D,/F/B,/) (3(E,,/B,/B,,/)!ped-up!!ped! (3(F,,/B,,/A,/) (3(G,,/E,/B,/(3G,/B/E/)!ped-up! | %8
!ped! (3(=G,,/D,/B,/(3=G,/!>(!=G/D/(3B,/G,/C,/)!ped-up!!ped! (3(F,,/!>)!C,/=A,/(3F,/!<(!C/C,/) (3(_E,,/_A,/!ped!!ped-up!A,,/)!<)! | %9
 (3(D,,/A,,/A,/(3F,/A/D/(3F,/A,/A,,/)!ped-up!!ped! (3(C,,/F,,/F,/(3E,/E/=A,/(3C,/F,/F,,/) | %10
!ped! (3(B,,,/F,,/F,/(3D,/B,/F,/) (3(G,,/B,/!ped!!ped-up!F,,/) (3(E,,/B,,/B,/(3G,/B/E/(3G,/B,/B,,/) | %11
!ped! (3(C,,/B,,/G,/(3E,/G/B,/(3E,/G,/!ped-up!B,,/)!ped! (3(D,,/B,,/F,/(3D,/F/B,/(3D,/F,/B,,/)!ped-up! | %12
!ped! (3(E,,/B,,/G,/(3E,/E/B,/(3E,/G,/B,,/)!ped-up!!ped! (3(=E,,/D,/B,/(3G,/D/B,/(3G,/B,/D,/)!ped-up! | %13
!ped! (3(F,,/D,/B,/(3F,/D/B,/(3F,/B,/D,/)!ped-up!!ped! (3(G,,/D,/!>(!B,/(3_F,/D/B,/!ped-up!!ped!._F)!>)! | %14
 z2 z!ped!!ped-up! (3(=G,,/D,/B,/(3_F,/D/B,/_F)!ped-up!!ped! | %15
 (3(A,,,/A,,/E,/(3__B,/G,/_C/(3B,/=F/E/)!ped! z A,,2 |!>(!!ped! (F,2!>)!!p! E,-!<(! E,D,C,-)!<)! | %17
 C,!ped-up!!ped! (3(_A,,,/A,,/G,/ (3B,/[I:staff -1]A,/=G,/)!ped-up!!ped! (3(_G,/[I:staff +1]B,/C,/(3G,/A,,/C,/A,,,/) !fermata!z/!ped-up! | %18
[K:A] (C,/ |!ped! E,,/)(A,,,/^E,,/)(A,,/F,,/).A,,,/!ped-up!!ped! z (C,/C,,/A,,,/) (F,/!ped-up! | %20
!ped! A,,/)(A,,,/^A,,/)(D,/B,,/).=A,,,/!ped-up!!ped! z (F,/F,,/A,,,)!ped-up! | %21
!ped! (G,,,/G,,/^E,/)(A,,,/C,)!ped-up!!ped! (G,,,/G,,/^E,/)(A,,,/C,)!ped-up! | %22
!ped! (B,,,/F,,/^D,/)(C,,/"^dim."[A,,E,]/^A,,/)!ped-up!!ped! (B,,/=A,,/) G,,2-!ped-up! | %23
!ped! G,,/ x3/2 x!ped-up!!ped! (B,/A,/) G,2-!ped-up! |!ped! G,/ x3/2 x4!ped-up!!ped! | %25
 A,,/(A,,,/!<(!^E,/)(F,/A,,/).A,,,/!ped-up!!<)!!>(!!ped! z!>)! (C/C,/A,,/)(A,/!ped-up! | %26
!ped! A,,/)(A,,,/^A,/)(B,/=A,,/).=A,,,/!ped-up!!ped! z (F/F,/A,,)!ped-up! | %27
!ped! (G,,/G,/^E/)(A,,/C)!ped-up!!ped! (^D,,/^D,/^B,/)"^dim."(E,,/G,)!ped-up! | %28
!ped! (F,,/!>(!C,/^A,/)(G,,/[E,B,]/!>)!^E,/)!ped-up!!ped! (F,/=E,/) ^D,2!ped-up! | %29
!ped! ^D,/ x3/2 x!ped-up!!ped! (F/E/) ^D2-!ped-up! | %30
!ped! D/ x3/2 x!ped-up!!ped! z z z/!ped-up!!ped!!mf! G,,/ | %31
 (C,,/A,,/E,/A,/B,/C/)!ped-up!!ped! F,,,/F,,/C,/F,/.[^A,E]!ped-up! | %32
!ped! (C,,/!<(!A,,/E,/A,/B,/!<)!.C/)!ped-up! |!ped! (^D,,/^A,,/^D,/^^F,/C)!ped-up! | %34
"^cresc."!ped! (E,,/C,/!<(!G,/C/D/!<)!E/)!ped-up!!ped! (^A,,,/^A,,/^E,/^A,/[^^CG])!ped-up! | %35
!ped! (=F,,/_D,/_A,/_D/_E/=F/)!ped-up!!ped! (=G,,/=D,/=G,/=B,/F)!ped-up! | %36
!ped! (_A,,/=F,/=C/F,/[C_A])!ped-up!!ped! (=G,,/F,/_D/F,/[D_B])!ped-up! | %37
!ped! _A,,/ ([=F,=C-]/[^F,C]/) (=A,,/_B,,/) (([=G,_B,]/!ped-up!!ped![^G,D]/)) (=B,,/=C,/) (([=A,=C]/[^A,E]/)) ^C,/!ped-up! | %38
!ped! (D,/B,/F/B,/[K:treble][Fd])!ped-up![K:bass]!ped! (C,/B,/G/B,/[K:treble][Ge])!ped-up! | %39
[K:bass]!ped! D,/ ([B,F-]/[^^B,F]/) (^D,/E,/) (([CE]/!ped-up!!ped![^^CG]/)) (=F,/_G,/)[K:treble] (([_E_G]/[=E_B]/)) x/!ped-up! | %40
[K:Db]!ped! A,/E/d/B/[egd']!ped-up!!ped! A,/=E/d/B/[=e=gd']!ped-up! | %41
!ped! (6:4:6x/4x/4x/4x/4x/4x/4 !arpeggio![A,EGc] z z!ped-up!!ped! z2 z!ped-up! | %42
!ped! z6!ped-up!!ped!!ped-up! | %43
[K:bass]!ped! (3(A,,,/A,,/!>(!F,/(3A,/G,/=D,/!>)! (3E,/)[I:staff -1] _D/C/(3=G,/A,/_A/(3G/=D/E/(3_d/c/=G/(3A/_a/"^peredendosi"!>(!g/!8va(!(3=d/e/_d'/(3c'/=g/a/ [Ae_gc']!>)!!8va)![I:staff +1] z!ped-up! !fermata!z!ped! | %44
!p! (3(!arpeggio![D,,,D,,]/A,,/A,/(3F,/A/D/(3F,/A,/A,,/)!ped-up!!ped! (3(D,,/A,,/A,/(3F,/A/D/(3F,/A,/!ped!A,,/)!ped-up! | %45
"^dolce" (3(D,,/A,,/A,/(3F,/A/D/(3F,/A,/A,,/)!ped-up!!ped! (3(C,,/F,,/!<(!F,/(3E,/F/=A,/(3C,/F,/F,,/)!<)! | %46
!ped! (3(B,,,/F,,/F,/(3D,/B,/F,/) (3(A,,/C/A,/)!ped-up!!ped! (3(D,,/A,,/A,/(3F,/A/D/(3F,/A,/A,,/)!ped-up! | %47
"^leggiero"!ped! (3(C,,/C,/E,/(3B,/G/E/)!ped-up!!ped! (3(F,,/C/E,/) | x3!ped-up! %48
!ped! (3(G,,/E,/C/(3B,/E/D/)!ped-up!!ped! (3(=G,,/D/=E,/)!ped-up! | %49
!ped! (3(A,,/F,/D/)!ped-up!!ped! (3(=D,,/[F,_C]/F/)!ped-up!!ped! (3(E,,/[=CG]/E,/)!ped-up!!ped! (3(F,,,/F,,/C,/(3=A,/F,/F/(3A,/F,/C,/) | %50
!ped! (3(=D,,/B,,/F,/!pp!(3=D,/F/B,/(3F,/A,/B,,/)!ped-up!!ped! (3(E,,/B,,/G,/(3E,/G/B,/(3E,/G,/B,,/)!ped-up! | %51
!>(!!ped! (3(C,,/B,,/G,/!>)!(3E,/B,/G,/(3G,,/B,/C,/) | x3!ped-up! %52
!ped! (3(F,,/C,/=A,/(3F,/F/C/(3F,/A,/C,/)!ped-up! | %53
!ped! (3(=D,,/B,,/F,/(3=D,/F/B,/)!ped-up!!ped! (3(E,,/B,/B,,/)!ped-up!!ped! (3(F,,/B,,/B,/)!ped-up!!ped! (3(G,,/E,/B,/(3G,/B/E/) | %54
"^con forza"!mp!!ped! (3(=G,,/D,/B,/(3=G,/F/D/)!ped-up!!mf!!ped! (3(C,/=E/B,/)!ped-up!!ped! (3(F,,/C,/=A,/(3F,/C/C,/)!ped-up!!ped! (3(_E,,/_A,/!ped!!ped-up!A,,/)!ped-up! | %55
 (3(D,,/A,,/A,/(3F,/A/D/(3F,/A,/A,,/)!ped-up!!ped! (3(C,,/F,,/F,/(3E,/F/=A,/(3C,/F,/F,,/) | %56
!ped! (3(B,,,/F,,/F,/(3D,/F/B,/)!ped-up!!ped! (3(G,,/B,/F,,/)!ped-up!!ped! (3(E,,/B,,/B,/(3G,/B/E/(3G,/B,/B,,/)!ped-up! | %57
!ped! (3(A,,,/A,,/)([G,C]/(3[A,G]/[G,C]/[A,G]/(3[G,C]/[A,G]/)(A,,/!ped-up!!ped! (3A,,,/A,,/)([G,C]/(3[A,G]/[G,C]/[A,G]/(3[G,C]/[A,G]/)(A,,/!ped-up! | %58
!ped! (3A,,,/A,,/)([F,_C]/(3[A,F]/[F,C]/!<(![A,F]/(3[F,C]/[A,F]/) z/!ped-up!!ped! (3(G,,,/A,,/)([G,E]/(3[B,G]/[G,E]/[B,G]/)(3[E,,E,]/([B,G]/[G,E]/)!ped-up!!<)! | %59
!ped! (3(D,,/D,/)[K:treble]([_CF]/(3[D_c]/[CF]/[Dc]/(3[CF]/[Dc]/)[K:bass](D,/!ped-up!!ped! (3D,,/D,/)[K:treble]([_CF]/(3[D_c]/[CF]/[Dc]/(3[CF]/[Dc]/)[K:bass](D,/!ped-up! | %60
!ped! (3D,,/D,/)[K:treble]([B,F]/(3[DB]/[B,F]/[DB]/(3[B,F]/[DB]/) z/ | x3!ped-up! %61
[K:bass]!ped! (3(_C,,/_C,/)[K:treble]!>(!([A,=F]/(3[E_c]/[A,F]/[Ec]/)(3([F,E]/[_CA]/!ped!!ped-up![F,E]/)!ped-up!!>)! | %62
[K:bass] (3(B,,,/B,,/F,/(3=D/B,/A/(3D/B,/F,/)!ped-up!!ped! (3(_C,/!>(!F,/E/(3A,/A/E/(3A,/E/F,/)!>)! | %63
!ped! (3(B,,/F,/=D/(3B,/A/D/(3B,/D/F,/)!ped-up!!ped! (3(_C,/F,/E/(3A,/A/E/(3A,/E/F,/)!ped-up! | %64
!ped! (3(B,,/F,/=D/(3B,/A/D/(3B,/D/F,/)!ped-up!!ped! (3(__B,,/E,/_D/(3G,/G/D/(3G,/D/E,/) |!ped-up! %65
!ped! (3(A,,/E,/C/(3A,/G/C/(3A,/C/E,/)!ped-up!!ped! (3(A,,/G,/C/(3A,/G/C/(3A,/C/A,,/)!ped-up! | %66
"^dolce"!ped! (3(D,,/A,,/A,/(3F,/A/D/(3F,/A,/A,,/)"^marcato il canto"!ped-up!!ped! (3(D,,/_C,/F,/(3D,/F,/!<(!x/(3B,/D,/x/)!ped-up!!<)! | %67
!ped! (3z/ (D,,/!>(!B,,/(3_F,/D,/G,/(3A,/F,/!>)!x/)!ped-up!!ped! (3(D,,/B,,/G,/(3D,/F,/!<(!x/(3A,/B,,/_G,/)!ped-up!!<)! | %68
!ped! (3z/ (D,,/!>(!A,,/(3=D,/_C,/F,/(3x/A,,/!>)!F,/)!ped-up!!ped! (3(_D,,/B,,/B,/!<(!(3x/B,/F,/(3x/G,,/!ped!!ped-up!x/)!ped-up!!<)! | %69
 (B,,C,/D,/E,/F,/!ped-up!!ped! G,3) | %70
"^affettuoso"!ped! (3(D,,/A,,/A,/(3F,/A/D/(3F,/A,/A,,/)!ped-up!!ped!"^marcato" (E!<(!D/_C/B,/A,/)!ped-up!!ped!!ped-up!!<)! | %71
 =G,2 A,/B,/!ped-up!!ped! (D!<(!_C/B,/A,/_G,/)!ped-up!!ped!!<)! | %72
 (=F,2 E,/F,/)!ped-up!!ped! (A,G,/F,/E,/D,/) | %73
!ped! x/8x/8x/8[I:staff -1]x/8x/8!<(![I:staff +1] !arpeggio![C,G,A,](C,/D,/E,/!<)!F,/)!ped-up!!ped! x/8x/8x/8x/8x/8 !arpeggio![G,B,]3/2(A,!ped-up!G,/ | %74
!>(!!ped! F,) x2!>)!!ped-up!!ped! x3 | x5/4!ped-up! %75
!ped! (3(=A,,,/F,,/D,/(3=A,,/F,/"^cresc."C,/(3F,,/_A,,/_A,,,/)!ped-up!!ped! (3(=G,,,/=G,,/D,/(3B,/F,/F/(3B,/F,/_G,,/)!ped-up! | %76
!ped! (3(F,,/D,/B,/(3F,/F/=A,/(3C,/F,/F,,/)!ped!!ped-up!!f! (3(E,,/B,,/G,/(3E,/G/B,/(3E,/G,/B,,/)!ped-up!!ped!!ped-up! | %77
 (3(A,,,/A,,/C,/"^dim."(3A,/G,/C/(3A,/G/C/!ped-up!!ped! (3G,/A,,/C/(3G,/G/C/(3G,/A,/A,,/)!ped-up!!ped! | %78
 (3(!arpeggio![D,,,D,,]/A,,/A,/(3F,/A/D/(3F,/A,/D,/)!ped! (FE/D/C/B,/ | %79
!ped! =A,B,/) x/ x!ped-up!!ped! (!arpeggio!__B2 A/G/)!ped-up!!ped! | %80
 (3(!arpeggio![D,,,D,,]/A,,/A,/(3F,/D/A/[I:staff -1](3F/d/a/"^m.s" a'3)!ped-up! | %81
!ped![I:staff +1] !arpeggio![=G,,D,F,D]6!ped-up! | %82
!ped! !arpeggio!!fermata![D,,A,,D,F,A,D]6!ped-up! |] %83
V:3
 x6 | x6 | x2 (G F3) | z z E- E2 =E | F!arpeggio![_CF]!arpeggio![B,E] (B, =A,2) | z (A2 G2) z | %6
 z (GB- B =A2) | z B2- B B2 | G2 =E- EF!arpeggio![CG_A] |{x} F3 E3 | D2 B !arpeggio![GB]3 | %11
 x/ [Be]3/2[GB] !arpeggio![FB]3 | G3 G3 | F3 _F2 z | z2 z _F2 z | %15
 !arpeggio![DE]2 z !arpeggio![G,=C]3 | C2 B,- B, B,2 | %17
 =A, (3:2:2_A,[I:staff +1]G,/[I:staff -1] x x2 x |[K:A][K:bass] A,/- | %19
 (9:6:5A,/x/x3/2x3/2x/- E,(3:2:2F,/ x (3:2:2x[K:treble] D/- | %20
 (9:6:5D/x/x3/2x3/2x/- A,(3:2:2B,/ x (3:2:2x (G/- | %21
 (3G/B,/E/ C) (3:2:2x (G/- (3G/B,/D/ C) (3x/ (F/=E/ | %22
 (3^D/A,/C/(3:2:1B,3/2(3:2:2A,=G,/) (3:2:1(F,3/2-(3F,/F,/A,/(3:2:2^G,F,/- | %23
 (3F,/!>(!^E,/A,/G,) z!>)! (3:2:1(F3/2-(3F/F/A/(3:2:2GF/ | %24
 ^E) x2 x2[K:bass] (3:2:2x[K:treble] A/- | (9:6:5A/x/x3/2x3/2^E/ E(3:2:2F/ x (3:2:2x d/- | %26
 (9:6:5d/x/x3/2x3/2^A/- A(3:2:2B/ x (3:2:2x (g/- | %27
 (3g/B/e/ c) (3:2:2x (^d/- (3d/F/A/ G) (3x/ (c/=B/ | %28
 (3^A/E/G/(3:2:1F3/2(3:2:2E=D/) (3:2:1(C3/2-(3C/C/E/(3:2:2^D(C/ | %29
 (3C/)^B,/E/^D) z (3:2:1(c3/2-(3c/c/e/(3:2:2^dc/ | ^B) x2 x2 (3:2:2x (=B/ | %31
 (9:6:5B/x/x3/2x3/2=G/- (3G/E/F/ ^A) z | (9:6:5(B/x/x3/2x3/2^^F/- | (3F/E/^D/ ^^F) (3z/ x/ (^d/- | %34
 (9:6:5d/x/x3/2x3/2B/- (3B/G/^A/ ^^c) z | (9:6:5(_e/x/x3/2x3/2B/- (3B/_A/=G/ B) (3z/ x/ =g/- | %36
 (3:2:2g=f/ x x4 | x x x (3=f'/=f/(b/(3=e'/=e/)(a/(3=g'/=g/)c'/- | (3:2:2c'b/!8va(! x x4 | %39
 x x x (3b'/b/!<(!(=f'/(3_b'/_b/)(_e'/(3_d''/=d'/)!<)!=g'/- |[K:Db] (3:2:1g'3/2g'/ x/ x4 | %41
 x [gc'] x x4!8va)! | x6 | x7!8va(! x3!8va)! x2 | x6 | x6 | x6 | x3 | x3 | %49
x2(6:4:6x/4!>(!e/4=A/4=c/4B/4!>)!x/4 x x2 |!8va(! x3!8va)! x2 x/4 e'/4e/4f/4 |!8va(! x2!8va)! x | %52
 x19/12!8va(! x17/12 | x4/3!8va)! x4!8va(! x2/3 | x/3!8va)! x23/15!8va(! x7/15!8va)! x11/3 | x6 | %56
 x6 | x6 | x6 | x/!8va(! x11/2 | x3 | x2!8va)! x | x6 | x293/64!8va(! x47/60!8va)! x21/32 | x6 | %65
 x3 (cBA/G/) | F3 F3 | _F3 F2 E | =D3 x2 x/ (3x/4 x/4x/4 | !arpeggio![G,E]2 B, (CA,) x | x a2 f3 | %71
 =g2 _f B2 _c |!8va(! x5/4!8va)! x301/64 | x25/4!8va(! x | x3!8va)! x D2 | (D!p! C2) x B2 | %76
 (([Bd] [=Ac]2)) x g2 | x3 !arpeggio![ff']3 |!8va(! x3 d'3!8va)! | d'bf (fe/d/c/B/) | [FA]6 | %81
 [FBdf]6 | x3/4 x/8x/8x/8x/8x/8x/8x/8 x3/8 x4 |] %83
V:4
 x6 | x6 | x6 | x6 | x/ (3:2:4x/4 x/4 x/8x/8 x/ (3:2:4x/4 x/4 x/8x/8 x/ x/ x x2 | x6 | x6 | x6 | %8
 x3 x x/ x/4 x/8x/8x/ (3x/4 x/4x/4 | (3x/4x/4 x/4 x/ x5 | x2 x/ (3x/4 x/4x/4 x x2 | %11
 x/4 x/8x/8 x x/4 x/8x/8 x/ x/4 x/8x/8 x3 | x6 | x6 | x3 x2 x/ x/4 x/8x/8 | %15
 (3:2:2x x/ x x/ x/4 x/8x/8 (3:2:2x/ x x2 | x6 | x6 |[K:A][K:bass] x/ | x17/3[K:treble] x/3 | x6 | %21
 x6 | x6 | x6 | x4[K:bass] x5/3[K:treble] x/3 | x6 | x6 | x6 | x6 | x6 | x6 | x6 | x3 | x3 | x6 | %35
 x6 | x6 | x6 | x!8va(! x5 | x6 |[K:Db] x6 | x4!8va)! x3 | x6 | %43
 x6 x2!8va(! x/ x/ _A/8x/8x/8x/8x/8x/8x/8x/8!8va)! x x | x3 x2 x/ (3x/4 x/4x/4 | %45
 (3x/4x/4x/4 x/ a2 e3 | x6 | x3 | x3 | x6 | %50
!8va(! x x3/2!8va)! (6:4:3x3/8{/A} x/8 x/4{/F} x/ x/ x x3/4 x/8!8va(! x/8!8va)! | %51
!8va(! (3:2:1x3/2 x2!8va)! | x19/12!8va(! x17/12 | x4/3!8va)! x4!8va(! x2/3 | %54
 x3!8va)! x2 x/ (3x/4 x/4x/4 | (3x/4x/4x/4 x/ a2 e3 | x6 | x6 | x6 | x/!8va(! x11/2 | x3 | %61
 x2!8va)! x/ (3x/4 x/4x/4 | (3x/4x/4 x/4 x/ x x4 | x293/64!8va(! x47/60!8va)! x21/32 | x6 | x6 | %66
 x3 (ED/[I:staff +1]_C/B,/_A,/) | (=G,2 A,/B,/)[I:staff -1] (D_C/[I:staff +1]B,/A,/_G,/) | %68
 (F,2 E,/x/)[I:staff -1] A,[I:staff +1]G,/F,/E,/D,/ |[I:staff -1] x3/2 x/4 x/8x/8x/x/ x x2 | x6 | %71
 x3 x2 x3/4 x/8x/8 |!8va(! x5/4!8va)! x301/64 | x25/4!8va(! x | x2!8va)! x4 | x6 | %76
 x3 x2 x/ x/4 x/8x/8 | x/8x/8 x/4 x/ x x/ x/4 x/8x/8 x x x/ x/4 x/8x/8 | %78
!8va(! x/8x/8x/8 x3/4 x x31/8!8va)! | x6 | x6 | x/ x/8x/8x/8x/8x x4 | x6 |] %83
V:5
 x6 | x6 | x6 | x6 | x6 | x6 | x6 | x6 | x6 | x6 | x6 | x6 | x6 | x6 | x6 | x6 | (A,,2 =G,, _G,,3 | %17
 F,,) x x x3 |[K:A] x/ | x3 (=G,,F,,/) x/ x | x3 (=C,B,,/) x/ x | x6 | x3 (=D,,>F,,E,,/D,,/) | %23
 (C,,/B,,/^E,/C,/B,) (D,>F,=E,/D,/) | (C,/G,/C/B,/E) z z z/!f! (=E,/ | x3) (=G,F,/) x3/2 | %26
 x3 (=CB,/) x/ x | x6 | x3 (=A,,>C,B,,/A,,/) | (G,,/F,/^B,/G,/F) (A,>C=B,/A,/) | (G,/^D/G/F/B) x3 | %31
 x6 | x3 | x3 | x6 | x6 | x6 | x6 | x2[K:treble] x[K:bass] x2[K:treble] x | %39
[K:bass] x3 x2[K:treble] !arpeggio!=G,/_B,/ |[K:Db] x6 | x7 | x6 |[K:bass] x6 x4 x x7/8 x/8 | x6 | %45
 x6 | x6 | x3 | x3 | x6 | x6 | x3 | x3 | x6 | x6 | x6 | x6 | x6 | x6 | %59
 x2/3[K:treble] x2[K:bass] x[K:treble] x2[K:bass] x/3 | x2/3[K:treble] x7/3 | %61
[K:bass] x2/3[K:treble] x7/3 |[K:bass] x6 | x6 | x6 | x6 | x6 | x6 | x6 | %69
 (3z/!>(! (D,,/A,,/(3x/B,/x/(3x/!>)!A,,/x/) (3z/ (D,,/A,,/!<(!(3G,/E,/C/(3G/A,/A,,/)!<)! | %70
 x3 (3!arpeggio![F,_C]/D,,/D,/(3D/F,/C/(3B,/D,/A,/ | %71
 (3!arpeggio![B,_F]/D,,/B,,/(3=G,/_F,/D/(3x/D,/x/ (3F,/D,,/D,/(3x/F,/x/(3x/E,/x/ | %72
 (3=D,,/B,,/A,/(3F,/B,/B,,/(3x/B,,,/x/ (3z/ E,,/B,,/(3x/B,,/x/(3x/B,/x/ | %73
 x/ x/8 (3z/ A,,/B,,/(3C,/A,/D,/(3E,/A,,/F,/ x/ x/8 (3A,,/A,,,/A,,/(3C,/A,/C,/(3A,,/A,,,/ G,/ | %74
 (3(D,,/A,,/A,/(3F,/A/D/(3F,/A,/A,,/) (3(B,,,/B,,/D,/(3B,/F,/D,/(3B,,/D,/F,,/) | x6 | x6 | x6 | %78
 x/8x/8 x3/4 x x3/4 x/8x/8 (3(!arpeggio![G,D]/G,,/D,/(3E/G,/x/(3C/D,/B,/) | %79
 (3z/ (=G,,/D,/(3B,/=G,/F/(3D/F/[I:staff -1]x/)[I:staff +1] (3([C_G]/_A,,,/"^poco rit."A,,/(3_G,/C/_A,/(3A/C/G/) | %80
 x6 | x/8x/8x/8x/8 x/ x x4 | x/8x/8x/8x/8x/8x/8 x/4 x x2 x2 |] %83

